22x22/actions/zoom.svg

<svg xmlns="http://www.w3.org/2000/svg" viewBox="0 0 22 22"><path style="fill:currentColor;fill-opacity:1;stroke:none;color:#5d656b" d="M3 3v3h1V4h2V3H3zm8 0L9 5h4l-2-2zm5 0v1h2v2h1V3h-3zM5 9l-2 2 2 2V9zm12 0v4l2-2-2-2zM3 16v3h3v-1H4v-2H3zm15 0v2h-2v1h3v-3h-1zm-9 1 2 2 2-2H9z"/></svg>

<svg xmlns="http://www.w3.org/2000/svg" viewBox="0 0 22 22">
  <defs id="defs3051">
    <style type="text/css" id="current-color-scheme">
      .ColorScheme-Text {
        color:#5d656b;
      }
      </style>
  </defs>
 <path 
    style="fill:currentColor;fill-opacity:1;stroke:none" 
    d="M 3 3 L 3 4 L 3 6 L 4 6 L 4 4 L 6 4 L 6 3 L 4 3 L 3 3 z M 11 3 L 9 5 L 13 5 L 11 3 z M 16 3 L 16 4 L 18 4 L 18 6 L 19 6 L 19 4 L 19 3 L 18 3 L 16 3 z M 5 9 L 3 11 L 5 13 L 5 9 z M 17 9 L 17 13 L 19 11 L 17 9 z M 3 16 L 3 18 L 3 19 L 6 19 L 6 18 L 4 18 L 4 16 L 3 16 z M 18 16 L 18 18 L 16 18 L 16 19 L 19 19 L 19 16 L 18 16 z M 9 17 L 11 19 L 13 17 L 9 17 z "
    class="ColorScheme-Text"
    />  
</svg>
